X: 100
T: No_189_Snake_Dance_Song_(b).krn
N: Derived from No_189_Snake_Dance_Song_(b).krn
%%abc-version 2.0
%%abcx-abcm2ps-target-version 5.9.1 (29 Sep 2008)
%%abc-creator hum2abc beta
%%abcx-conversion-date 2019/03/15 08:38:45
%%humdrum-veritas 2570501825
%%humdrum-veritas-data 3804143736
%%linebreak <none>
%%barnumbers 0
L: 1/8
M: 2/4
K: F clef=bass
[K:clef=bass][M:2/4]F,F,C2 ]|:  
C4 | 
A,2C2 | 
!accent!CB, !accent!A,F, | 
A,3F, | 
F,4 | 
F,2F, z | 
C2A,2 | 
A,3F, | 
B,2A,F, | 
A,2F,F, | 
F,3z | 
_E,4 | 
_E,2E, z | 
F,4 ||  
[M:3/4]F,4z2 ||  
[M:2/4]F,2C2 ||  
[M:3/4]F,4F,2 | 
B,2-(B,E,/) z/B,2 | 
B,2-(B,E,/) z/B,2 ||  
[M:5/4]z8z2 ||  
[M:3/4]F,3/F,/ F,3/F,/C2 | 
C3B, A,F, ||  
[M:2/4]A,2z2 ||  
[M:3/4]C3/B,/ A,3/C/C2 ]|:  
[M:2/4]CB,A,2 ||  
[M:3/4]B,A, A,F, A,3/F,/ ||  
[M:2/4]F,4 | 
C3/B,/A,2 | 
F,F,F,2 | 
F,4 | 
A,3/F,/F,2 | 
F,2z2 | 
[M:3/4]F,4C2 :|]  



